icons/1_Primary/Pinterest.svg

<svg width="1024" height="1024" fill="none" xmlns="http://www.w3.org/2000/svg"><g clip-path="url(#a)"><path d="M512 1024c282.77 0 512-229.23 512-512S794.77 0 512 0 0 229.23 0 512s229.23 512 512 512Z" fill="#FF837D"/><path d="M512.21 255.58C370.71 255.58 256 370.29 256 511.79c0 108.6 67.48 201.38 162.79 238.71-2.32-20.24-4.22-51.45.84-73.59 4.64-20 29.94-127.37 29.94-127.37s-7.59-15.39-7.59-38c0-35.64 20.67-62.21 46.39-62.21 21.93 0 32.47 16.45 32.47 36.06 0 21.93-13.92 54.83-21.3 85.4-6.12 25.52 12.86 46.39 38 46.39 45.55 0 80.55-48.08 80.55-117.25 0-61.36-44.07-104.17-107.12-104.17-73 0-115.77 54.62-115.77 111.13 0 21.93 8.43 45.55 19 58.41a7.62 7.62 0 0 1 1.69 7.38c-1.9 8-6.33 25.52-7.17 29.1-1.05 4.64-3.8 5.69-8.65 3.37-32.05-15-52.09-61.57-52.09-99.32 0-80.76 58.62-155 169.33-155 88.78 0 157.94 63.26 157.94 148 0 88.36-55.67 159.42-132.85 159.42-25.94 0-50.4-13.5-58.62-29.52l-16 60.94C462 712.12 446.42 740 435.87 757a257.343 257.343 0 0 0 75.91 11.39C653.28 768.42 768 653.71 768 512.21c.42-141.92-114.29-256.63-255.79-256.63Z" fill="#fff"/></g><defs><clipPath id="a"><path fill="#fff" d="M0 0h1024v1024H0z"/></clipPath></defs></svg>

<svg width="1024" height="1024" viewBox="0 0 1024 1024" fill="none" xmlns="http://www.w3.org/2000/svg">
<g clip-path="url(#clip0_2_3135)">
<path d="M512 1024C794.77 1024 1024 794.77 1024 512C1024 229.23 794.77 0 512 0C229.23 0 0 229.23 0 512C0 794.77 229.23 1024 512 1024Z" fill="#FF837D"/>
<path d="M512.21 255.58C370.71 255.58 256 370.29 256 511.79C256 620.39 323.48 713.17 418.79 750.5C416.47 730.26 414.57 699.05 419.63 676.91C424.27 656.91 449.57 549.54 449.57 549.54C449.57 549.54 441.98 534.15 441.98 511.54C441.98 475.9 462.65 449.33 488.37 449.33C510.3 449.33 520.84 465.78 520.84 485.39C520.84 507.32 506.92 540.22 499.54 570.79C493.42 596.31 512.4 617.18 537.54 617.18C583.09 617.18 618.09 569.1 618.09 499.93C618.09 438.57 574.02 395.76 510.97 395.76C437.97 395.76 395.2 450.38 395.2 506.89C395.2 528.82 403.63 552.44 414.2 565.3C415.1 566.277 415.729 567.471 416.025 568.766C416.321 570.06 416.275 571.409 415.89 572.68C413.99 580.68 409.56 598.2 408.72 601.78C407.67 606.42 404.92 607.47 400.07 605.15C368.02 590.15 347.98 543.58 347.98 505.83C347.98 425.07 406.6 350.83 517.31 350.83C606.09 350.83 675.25 414.09 675.25 498.83C675.25 587.19 619.58 658.25 542.4 658.25C516.46 658.25 492 644.75 483.78 628.73L467.78 689.67C462 712.12 446.42 740 435.87 757C460.462 764.57 486.05 768.41 511.78 768.39C653.28 768.42 768 653.71 768 512.21C768.42 370.29 653.71 255.58 512.21 255.58Z" fill="white"/>
</g>
<defs>
<clipPath id="clip0_2_3135">
<rect width="1024" height="1024" fill="white"/>
</clipPath>
</defs>
</svg>
